X: 1
T:Acid Piper  "(c) Mark Saul Book 1"
M:C|
L:1/8
Q:80
C:Mark Saul
S:Hornpipe
K:HP
|: {gef}e{gAGAG}A{g}A{g}B/2{d}G/2|
{g}A/2e/2{g}e/2{A}e/2{g}d/2B/2{g}A/2{d}B/2|
{g}G{g}B/2d/2{G}d/2G/2{g}B/2d/2|  !
{g}d/2B/2{g}e/2d/2-d/2B/2{g}A/2{d}B/2|
{gef}e{gAGAG}A{g}A{g}B/2{d}G/2|
{g}A/2e/2{g}e/2{A}e/2{g}d/2B/2{g}A/2{d}B/2|  !
{g}G/2A/2B/2{g}d/2-d/2B/2{g}e/2d/2|
{gBd}B{e}A{GAG}A:| |:
{g}e/2|  !
a{g}ae/2{A}e/2{g}e/2a/2|
{AGAG}A{g}e/2a/2g/2e/2{g}d/2B/2|
{g}G{g}B/2d/2{G}d/2G/2{g}B/2d/2|  !
{g}d/2B/2{g}e/2d/2-d/2B/2{g}A/2{d}B/2|1
a{g}ae/2{A}e/2{g}e/2a/2|
{AGAG}A{g}e/2a/2g/2e/2{g}d/2B/2|  !
{g}G/2A/2B/2{g}d/2-d/2B/2{g}e/2d/2|
{gBd}B{e}A{GAG}A:|
